X: 36078
T: Scatter The Mud
R: jig
M: 6/8
K: Adorian
|:eAA B2A|eAA ABd|eAA BAB|dBG GBd|
eAA BAA|eAA AGE|GAB Bge|dBA ABd:|
|:eaa egg|dBA ABd|eaa egg|dBG GBd|
eaa g2e|dBA AGE|GAB Bge|dBA ABd|
eaa egg|dBA ABd|eaa egg|dBG GBd|
eaf g2e|dBA AGE|GAB Bge|dBA ABd||

